X:166
T:Hansons Waltz. JGi.166
M:3/8
L:1/8
Q:3/8=60
S:Joshua Gibbons MS,1823,Tealby,Lincs.
R:waltz
O:Tealby,Lincolnshire
Z:VMP/R.Greig, 2009
K:C
g|gfe|e2c|d/e/fa|g2e|gfd|e2c|e/d/cB|c2:|
|:c|B/d/GB|c2e|d/e/fa|g2c|B/d/GB|c2e|e/d/cB|c2:|

